page/img/svg-margin.svg

<svg width="32" height="24" viewBox="0 0 32 24" fill="none" xmlns="http://www.w3.org/2000/svg">
<g clip-path="url(#clip0_2_4246)">
<path fill-rule="evenodd" clip-rule="evenodd" d="M1.13976 11.5C1.13976 8.75236 2.23125 6.11725 4.17413 4.17437C6.11701 2.2315 8.75211 1.14 11.4998 1.14C14.2474 1.14 16.8825 2.2315 18.8254 4.17437C20.7683 6.11725 21.8598 8.75236 21.8598 11.5C21.8598 14.2476 20.7683 16.8827 18.8254 18.8256C16.8825 20.7685 14.2474 21.86 11.4998 21.86C8.75211 21.86 6.11701 20.7685 4.17413 18.8256C2.23125 16.8827 1.13976 14.2476 1.13976 11.5ZM11.4998 0C8.44977 0 5.5247 1.2116 3.36803 3.36827C1.21136 5.52494 -0.000244141 8.45001 -0.000244141 11.5C-0.000244141 14.55 1.21136 17.4751 3.36803 19.6317C5.5247 21.7884 8.44977 23 11.4998 23C14.5497 23 17.4748 21.7884 19.6315 19.6317C21.7882 17.4751 22.9998 14.55 22.9998 11.5C22.9998 8.45001 21.7882 5.52494 19.6315 3.36827C17.4748 1.2116 14.5497 0 11.4998 0ZM12.0698 6.53C12.0698 6.37883 12.0097 6.23385 11.9028 6.12695C11.7959 6.02005 11.6509 5.96 11.4998 5.96C11.3486 5.96 11.2036 6.02005 11.0967 6.12695C10.9898 6.23385 10.9298 6.37883 10.9298 6.53V10.93H6.52976C6.37858 10.93 6.2336 10.9901 6.12671 11.0969C6.01981 11.2038 5.95976 11.3488 5.95976 11.5C5.95976 11.6512 6.01981 11.7962 6.12671 11.9031C6.2336 12.0099 6.37858 12.07 6.52976 12.07H10.9298V16.47C10.9298 16.6212 10.9898 16.7662 11.0967 16.8731C11.2036 16.9799 11.3486 17.04 11.4998 17.04C11.6509 17.04 11.7959 16.9799 11.9028 16.8731C12.0097 16.7662 12.0698 16.6212 12.0698 16.47V12.07H16.4698C16.6209 12.07 16.7659 12.0099 16.8728 11.9031C16.9797 11.7962 17.0398 11.6512 17.0398 11.5C17.0398 11.3488 16.9797 11.2038 16.8728 11.0969C16.7659 10.9901 16.6209 10.93 16.4698 10.93H12.0698V6.53Z" fill="#00AFF5"/>
</g>
<defs>
<clipPath id="clip0_2_4246">
<rect width="24" height="24" fill="white" transform="translate(-0.000244141)"/>
</clipPath>
</defs>
</svg>

<?xml version="1.0"?>
<svg width="32" height="24" xmlns="http://www.w3.org/2000/svg" xmlns:svg="http://www.w3.org/2000/svg">
 <defs>
  <clipPath id="clip0_2_4246">
   <rect fill="white" height="24" id="svg_1" transform="translate(-0.000244141)" width="24"/>
  </clipPath>
 </defs>
 <g class="layer">
  <title>Layer 1</title>
  <g clip-path="url(#clip0_2_4246)" id="svg_2">
   <path clip-rule="evenodd" d="m1.14,11.5c0,-2.75 1.09,-5.38 3.03,-7.33c1.95,-1.94 4.58,-3.03 7.33,-3.03c2.75,0 5.38,1.09 7.33,3.03c1.94,1.95 3.03,4.58 3.03,7.33c0,2.75 -1.09,5.38 -3.03,7.33c-1.95,1.94 -4.58,3.03 -7.33,3.03c-2.75,0 -5.38,-1.09 -7.33,-3.03c-1.94,-1.95 -3.03,-4.58 -3.03,-7.33zm10.36,-11.5c-3.05,0 -5.98,1.21 -8.13,3.37c-2.16,2.15 -3.37,5.08 -3.37,8.13c0,3.05 1.21,5.98 3.37,8.13c2.15,2.16 5.08,3.37 8.13,3.37c3.05,0 5.97,-1.21 8.13,-3.37c2.16,-2.15 3.37,-5.08 3.37,-8.13c0,-3.05 -1.21,-5.98 -3.37,-8.13c-2.16,-2.16 -5.08,-3.37 -8.13,-3.37zm0.57,6.53c0,-0.15 -0.06,-0.3 -0.17,-0.4c-0.1,-0.11 -0.25,-0.17 -0.4,-0.17c-0.15,0 -0.3,0.06 -0.4,0.17c-0.11,0.1 -0.17,0.25 -0.17,0.4l0,4.4l-4.4,0c-0.15,0 -0.3,0.06 -0.4,0.17c-0.11,0.1 -0.17,0.25 -0.17,0.4c0,0.15 0.06,0.3 0.17,0.4c0.1,0.11 0.25,0.17 0.4,0.17l4.4,0l0,4.4c0,0.15 0.06,0.3 0.17,0.4c0.1,0.11 0.25,0.17 0.4,0.17c0.15,0 0.3,-0.06 0.4,-0.17c0.11,-0.1 0.17,-0.25 0.17,-0.4l0,-4.4l4.4,0c0.15,0 0.3,-0.06 0.4,-0.17c0.11,-0.1 0.17,-0.25 0.17,-0.4c0,-0.15 -0.06,-0.3 -0.17,-0.4c-0.1,-0.11 -0.25,-0.17 -0.4,-0.17l-4.4,0l0,-4.4z" fill="#157b0f" fill-rule="evenodd" id="svg_3"/>
  </g>
 </g>
</svg>
